Mindful/img/triangle-b.svg

<svg width="105" height="102" viewBox="0 0 105 102" fill="none" xmlns="http://www.w3.org/2000/svg">
<path fill-rule="evenodd" clip-rule="evenodd" d="M97.7941 86.7477C93.8144 86.7477 90.5882 89.7352 90.5882 93.4206C90.5882 97.1059 93.8144 100.094 97.7941 100.094C101.774 100.094 105 97.1059 105 93.4206C105 89.7352 101.774 86.7477 97.7941 86.7477Z" fill="#FF7761"/>
<path fill-rule="evenodd" clip-rule="evenodd" d="M9.26471 84.8411C4.14796 84.8411 7.62939e-06 88.6823 7.62939e-06 93.4206C7.62939e-06 98.1589 4.14796 102 9.26471 102C14.3815 102 18.5294 98.1589 18.5294 93.4206C18.5294 88.6823 14.3815 84.8411 9.26471 84.8411Z" fill="#FF7761"/>
<path fill-rule="evenodd" clip-rule="evenodd" d="M54.5588 85.7943C50.0106 85.7943 46.3235 89.2086 46.3235 93.4204C46.3235 97.6323 50.0106 101.047 54.5588 101.047C59.1071 101.047 62.7941 97.6323 62.7941 93.4204C62.7941 89.2086 59.1071 85.7943 54.5588 85.7943Z" fill="#FF7761"/>
<path fill-rule="evenodd" clip-rule="evenodd" d="M10.2941 42.8972C5.7459 42.8972 2.05883 46.3116 2.05883 50.5234C2.05883 54.7352 5.7459 58.1495 10.2941 58.1495C14.8424 58.1495 18.5294 54.7352 18.5294 50.5234C18.5294 46.3116 14.8424 42.8972 10.2941 42.8972Z" fill="#FF7761"/>
<path fill-rule="evenodd" clip-rule="evenodd" d="M54.5588 43.8505C50.5791 43.8505 47.3529 46.8381 47.3529 50.5234C47.3529 54.2087 50.5791 57.1963 54.5588 57.1963C58.5385 57.1963 61.7647 54.2087 61.7647 50.5234C61.7647 46.8381 58.5385 43.8505 54.5588 43.8505Z" fill="#FF7761"/>
<path fill-rule="evenodd" clip-rule="evenodd" d="M9.26471 2.86102e-05C5.28502 2.86102e-05 2.05883 2.98759 2.05883 6.67293C2.05883 10.3583 5.28502 13.3458 9.26471 13.3458C13.2444 13.3458 16.4706 10.3583 16.4706 6.67293C16.4706 2.98759 13.2444 2.86102e-05 9.26471 2.86102e-05Z" fill="#FF7761"/>
</svg>

<svg width="105" height="102" fill="none" xmlns="http://www.w3.org/2000/svg"><path fill-rule="evenodd" clip-rule="evenodd" d="M97.794 86.748c-3.98 0-7.206 2.987-7.206 6.673 0 3.685 3.226 6.673 7.206 6.673 3.98 0 7.206-2.988 7.206-6.673 0-3.686-3.226-6.673-7.206-6.673zM9.265 84.841C4.148 84.841 0 88.682 0 93.421 0 98.159 4.148 102 9.265 102c5.117 0 9.264-3.841 9.264-8.58 0-4.738-4.147-8.579-9.264-8.579zm45.294.953c-4.548 0-8.235 3.415-8.235 7.626 0 4.212 3.687 7.627 8.235 7.627s8.235-3.415 8.235-7.627c0-4.211-3.687-7.626-8.235-7.626zM10.294 42.897c-4.548 0-8.235 3.415-8.235 7.626 0 4.212 3.687 7.627 8.235 7.627s8.235-3.415 8.235-7.627c0-4.211-3.687-7.626-8.235-7.626zm44.265.953c-3.98 0-7.206 2.988-7.206 6.673 0 3.686 3.226 6.673 7.206 6.673 3.98 0 7.206-2.987 7.206-6.673 0-3.685-3.227-6.673-7.206-6.673zM9.265 0c-3.98 0-7.206 2.988-7.206 6.673s3.226 6.673 7.206 6.673c3.98 0 7.206-2.988 7.206-6.673S13.244 0 9.265 0z" fill="#FF7761"/></svg>
